src/assets/icons/socialIcons/vk.svg

<svg width="20" height="12" viewBox="0 0 20 12" fill="none" xmlns="http://www.w3.org/2000/svg"><path fill-rule="evenodd" clip-rule="evenodd" d="M19.1218 0.859453C19.2534 0.424879 19.1218 0.105469 18.495 0.105469H16.4224C15.8953 0.105469 15.6524 0.381363 15.5206 0.685536C15.5206 0.685536 14.4667 3.22822 12.9735 4.87978C12.4905 5.35787 12.2709 5.50995 12.0074 5.50995C11.8757 5.50995 11.685 5.35787 11.685 4.92329V0.859453C11.685 0.337847 11.532 0.105469 11.0928 0.105469H7.83585C7.50645 0.105469 7.30837 0.347517 7.30837 0.576966C7.30837 1.07132 8.05495 1.18546 8.13194 2.57621V5.59699C8.13194 6.25925 8.01113 6.37939 7.74761 6.37939C7.045 6.37939 5.33584 3.82528 4.32219 0.902969C4.12351 0.334917 3.92424 0.105469 3.39455 0.105469H1.32194C0.729763 0.105469 0.611328 0.381363 0.611328 0.685536C0.611328 1.22883 1.31394 3.9236 3.88294 7.48766C5.59565 9.92148 8.00876 11.2409 10.2045 11.2409C11.522 11.2409 11.685 10.9478 11.685 10.4431V8.60355C11.685 8.01747 11.8098 7.90055 12.227 7.90055C12.5343 7.90055 13.0613 8.05264 14.291 9.2261C15.6964 10.617 15.9281 11.2409 16.7185 11.2409H18.7911C19.3832 11.2409 19.6793 10.9478 19.5085 10.3695C19.3217 9.79313 18.6506 8.95695 17.7604 7.96575C17.2773 7.40063 16.5526 6.79228 16.3331 6.48796C16.0256 6.09676 16.1135 5.92284 16.3331 5.57515C16.3331 5.57515 18.8583 2.05475 19.1218 0.859453Z" fill="currentColor"></path></svg>

<svg xmlns="http://www.w3.org/2000/svg" width="20" height="12" fill="none"><path fill="currentColor" fill-rule="evenodd" d="M19.122.86c.131-.435 0-.755-.627-.755h-2.073c-.527 0-.77.276-.901.58 0 0-1.054 2.543-2.548 4.195-.482.478-.702.63-.966.63-.131 0-.322-.152-.322-.587V.86c0-.521-.153-.754-.592-.754H7.836c-.33 0-.528.243-.528.472 0 .494.747.608.824 2v3.02c0 .662-.12.782-.384.782-.703 0-2.412-2.554-3.426-5.476-.198-.568-.398-.798-.927-.798H1.322c-.592 0-.71.276-.71.58 0 .544.702 3.239 3.27 6.803C5.597 9.92 8.01 11.24 10.205 11.24c1.318 0 1.481-.293 1.481-.798v-1.84c0-.586.125-.702.542-.702.307 0 .834.152 2.064 1.325 1.405 1.391 1.637 2.015 2.427 2.015h2.073c.592 0 .888-.293.718-.871-.187-.577-.858-1.413-1.749-2.404-.483-.565-1.207-1.174-1.427-1.478-.307-.391-.22-.565 0-.913 0 0 2.525-3.52 2.789-4.716Z" clip-rule="evenodd"/></svg>
